X:139
T:Sixpenny Money
Z: id:dc-jig-117
M:6/8
L:1/8
K:D Major
fAA fAA|BAG FGE|DFA AFA|dfd ede|!
fAA fAA|BAG FGE|DFA AFA|dfd ede:|!
f3 g3|afd ecA|f3 g3|afd e3|!
f3 g3|afd ecA|DFA AFA|dfd ede:|!